X:21
T:Lord Cathcarts Fancy. WR1776.21
B:Wm.Randall CDs 1776
Z:vmp.Steve Mansfield 2015
M:6/8
L:1/8
W:Cast off 1 Cu. lead thro' the top cast off cast off another Cu.
W:lead thro' and cast off hands six round lead up to the top cast off
Q:3/8=110
K:F
F3 GAB | ABc def | gab agf | gaf edc |
F3 GAB | ABc def | edc dc=B | c3 C3 :|
|: c3 def | gfe dc=B | cdc cBA | A3 G3 |
FcA A_ee | dff egg | fdB ABG | F3 F3 :|

